X:1
T:Wohlauf, Thut Nicht Verzagen, 76.76 D
T:Bartholomäus Helder (1585-1635)
T:Wohlauf, Thut Nicht Verzagen, 76.76 D
T:Public Domain
C:Bartholom&#228;us Helder (1585-1635)
Z:Public Domain
%%score ( 1 2 ) ( 3 4 )
L:1/8
M:4/4
K:G
V:1 treble 
V:2 treble 
V:3 bass 
V:4 bass 
V:1
 x8 |: [DG]2 | G2 z B [FA]2 [EG]2 | [Gc]4 [GB]2 [Gd]2 | G2 z d [Ec]2 [FA]2 | [GB]6 :| [Gd]2 | %7
 [Fd]2 [Gc]2 [GB]2 EF | [GB]2 [FA][EG] [FA]2 [DF]2 | [DG]2 [FA]2 [GB]2 [G^c]2 | [Fd]6 [FA]2 | %11
 [GB]2 [FA]2 [EG]2 [DF]2 | [CE]2 [B,D][A,C] [B,D]2 D2 | [DE]2 B,C [DG]2 [DF]2 | [DG]6 |] %15
V:2
 x8 |: x2 | B3 G2 x3 | x8 | e3 G2 x3 | x6 :| x2 | x6 A2 | x8 | x8 | x8 | x8 | x6 D2 | x2 G2 x4 | %14
 x6 |] %15
V:3
 x8 |: [G,B,]2 | G,2 z D [D,D]2 [E,B,]2 | [C,E]4 [G,D]2 [G,B,]2 | C2 [G,B,]2 [A,C]2 [D,D]2 | %5
 [G,D]6 :| [G,B,]2 | [D,A,]2 E,F, [G,D]2 [A,C]2 | [G,D]4 [D,D]2 [C,A,]2 | %9
 [B,,G,]2 [D,D]2 [G,D]2 [E,G,]2 | [D,A,]6 [D,D]2 | [G,D]2 [D,D]2 [E,B,]2 [B,,B,]2 | %12
 [C,G,]4 [G,,G,]2 [B,,G,]2 | [C,G,]2 [E,G,]2 [D,A,]2 [D,A,]2 | [G,,B,]6 |] %15
V:4
 x8 |: x2 | D3 G,2 x3 | x8 | C2 x6 | x6 :| x2 | x2 E2 x4 | x8 | x8 | x8 | x8 | x8 | x8 | x6 |] %15

